images/icon/group1.svg

<svg width="41" height="48" viewBox="0 0 41 48" fill="none" xmlns="http://www.w3.org/2000/svg">
<path fill-rule="evenodd" clip-rule="evenodd" d="M6 0.434814L13.0078 7.06894L0 7.06128V39.2485H34V26.9418L41 33.5686V0.434814H6ZM33.6924 26.1632L13.8226 7.35277H33.6924V26.1632ZM27.5231 34.5403H5.38008V12.8927H6.9453V33.0745H27.5231V34.5403ZM10.6089 43.5339L9.79102 45.2185L8.97314 43.5339H8.28711L9.48096 45.78V47.0886H10.1011V45.78L11.2925 43.5339H10.6089ZM11.6367 47.0886L11.9248 46.261H13.3018L13.5923 47.0886H14.2368L12.8916 43.5339H12.3374L10.9946 47.0886H11.6367ZM12.6133 44.2883L13.1284 45.7629H12.0981L12.6133 44.2883ZM15.8701 45.6775C15.7806 45.8142 15.7358 45.9648 15.7358 46.1292C15.7358 46.4286 15.8408 46.672 16.0508 46.8591C16.2624 47.0447 16.5439 47.1375 16.8955 47.1375C17.2471 47.1375 17.5498 47.0422 17.8037 46.8518L18.0039 47.0886H18.6924L18.1699 46.4709C18.375 46.191 18.4775 45.8321 18.4775 45.3943H17.9624C17.9624 45.6335 17.9128 45.8508 17.8135 46.0461L17.1274 45.2356L17.3691 45.0598C17.54 44.9361 17.6629 44.8124 17.7378 44.6887C17.8127 44.5634 17.8501 44.4267 17.8501 44.2786C17.8501 44.054 17.7671 43.866 17.6011 43.7146C17.4367 43.5616 17.2251 43.4851 16.9663 43.4851C16.6798 43.4851 16.452 43.5665 16.2827 43.7292C16.1134 43.8904 16.0288 44.1101 16.0288 44.3884C16.0288 44.5024 16.0557 44.6204 16.1094 44.7424C16.1647 44.8645 16.2616 45.0126 16.3999 45.1868C16.1362 45.3756 15.9596 45.5391 15.8701 45.6775ZM17.4741 46.4636C17.3 46.5971 17.1128 46.6638 16.9126 46.6638C16.7352 46.6638 16.5936 46.6125 16.4878 46.51C16.382 46.4075 16.3291 46.274 16.3291 46.1096C16.3291 45.9192 16.4268 45.7499 16.6221 45.6018L16.6978 45.5481L17.4741 46.4636ZM16.8369 44.8889C16.6693 44.6822 16.5854 44.5105 16.5854 44.3738C16.5854 44.255 16.6196 44.1565 16.688 44.0784C16.7563 44.0002 16.8483 43.9612 16.9639 43.9612C17.0713 43.9612 17.16 43.9945 17.23 44.0613C17.3 44.1264 17.335 44.2053 17.335 44.2981C17.335 44.4381 17.2845 44.5528 17.1836 44.6423L17.1079 44.7034L16.8369 44.8889ZM22.623 46.8201C22.8672 46.6069 23.0072 46.3106 23.043 45.9314H22.4277C22.3952 46.1853 22.3179 46.3668 22.1958 46.4758C22.0737 46.5849 21.8914 46.6394 21.6489 46.6394C21.3836 46.6394 21.1818 46.5385 21.0435 46.3367C20.9067 46.1348 20.8384 45.8419 20.8384 45.4578V45.1428C20.8416 44.7636 20.9149 44.4763 21.0581 44.281C21.203 44.0841 21.4097 43.9856 21.6782 43.9856C21.9093 43.9856 22.0843 44.0426 22.2031 44.1565C22.3236 44.2688 22.3984 44.4527 22.4277 44.7083H23.043C23.0039 44.3193 22.8647 44.0181 22.6255 43.8049C22.3862 43.5917 22.0705 43.4851 21.6782 43.4851C21.3869 43.4851 21.1297 43.5543 20.9067 43.6926C20.6854 43.831 20.5153 44.0279 20.3965 44.2834C20.2777 44.539 20.2183 44.8344 20.2183 45.1697V45.5017C20.2231 45.8289 20.2842 46.1161 20.4014 46.3635C20.5186 46.6109 20.6846 46.8022 20.8994 46.9373C21.1159 47.0707 21.3657 47.1375 21.6489 47.1375C22.0542 47.1375 22.3789 47.0317 22.623 46.8201ZM26.2534 46.322C26.3739 46.0583 26.4341 45.7524 26.4341 45.4041V45.2063C26.4325 44.8596 26.3706 44.5561 26.2485 44.2957C26.1265 44.0336 25.9531 43.8334 25.7285 43.6951C25.5055 43.5551 25.2492 43.4851 24.9595 43.4851C24.6698 43.4851 24.4126 43.5559 24.188 43.6975C23.965 43.8375 23.7917 44.0401 23.668 44.3054C23.5459 44.5707 23.4849 44.8767 23.4849 45.2234V45.4236C23.4865 45.7638 23.5483 46.064 23.6704 46.3245C23.7941 46.5849 23.9683 46.7859 24.1929 46.9275C24.4191 47.0675 24.6763 47.1375 24.9644 47.1375C25.2557 47.1375 25.5129 47.0675 25.7358 46.9275C25.9604 46.7859 26.133 46.5841 26.2534 46.322ZM25.5918 44.3127C25.7415 44.5227 25.8164 44.8246 25.8164 45.2185V45.4041C25.8164 45.8044 25.7423 46.1088 25.5942 46.3171C25.4478 46.5255 25.2378 46.6296 24.9644 46.6296C24.6942 46.6296 24.4826 46.523 24.3296 46.3098C24.1782 46.0966 24.1025 45.7947 24.1025 45.4041V45.199C24.1058 44.8165 24.1823 44.5211 24.332 44.3127C24.4834 44.1028 24.6925 43.9978 24.9595 43.9978C25.2329 43.9978 25.4437 44.1028 25.5918 44.3127Z" fill="#AFB1B8"/>
</svg>

<svg width="41" height="48" fill="none" xmlns="http://www.w3.org/2000/svg"><path fill-rule="evenodd" clip-rule="evenodd" d="M6 .435l7.008 6.634L0 7.06V39.25h34V26.941l7 6.627V.435H6zm27.692 25.728l-19.87-18.81h19.87v18.81zm-6.169 8.377H5.38V12.893h1.565v20.181h20.578v1.466zM10.61 43.534l-.818 1.684-.818-1.684h-.686l1.194 2.246v1.309h.62V45.78l1.191-2.246h-.683zm1.028 3.555l.288-.828h1.377l.29.828h.645l-1.345-3.555h-.555l-1.342 3.555h.642zm.976-2.8l.515 1.474h-1.03l.515-1.475zm3.257 1.389a.808.808 0 00-.134.451c0 .3.105.543.315.73.211.186.493.279.845.279.351 0 .654-.096.908-.286l.2.237h.688l-.522-.618c.205-.28.307-.639.307-1.077h-.515c0 .24-.05.457-.148.652l-.687-.81.242-.176a1.34 1.34 0 00.369-.371.785.785 0 00.112-.41.732.732 0 00-.249-.564.895.895 0 00-.635-.23c-.286 0-.514.081-.683.244-.17.161-.254.381-.254.66 0 .113.027.231.08.353.056.123.153.27.29.445-.263.189-.44.352-.529.49zm1.604.786a.905.905 0 01-.561.2.585.585 0 01-.425-.154.533.533 0 01-.159-.4c0-.19.098-.36.293-.508l.076-.054.776.916zm-.637-1.575c-.168-.207-.252-.379-.252-.515 0-.119.035-.218.103-.296a.348.348 0 01.276-.117.37.37 0 01.266.1c.07.065.105.144.105.237a.44.44 0 01-.151.344l-.076.061-.271.186zm5.786 1.931c.244-.213.384-.51.42-.889h-.615c-.033.254-.11.436-.232.545-.122.109-.305.163-.547.163-.265 0-.467-.1-.605-.302-.137-.202-.206-.495-.206-.88v-.314c.004-.38.077-.667.22-.862.145-.197.352-.295.62-.295.231 0 .406.057.525.17.12.113.195.297.225.552h.615c-.04-.389-.178-.69-.418-.903-.239-.213-.555-.32-.947-.32-.291 0-.548.07-.771.208a1.346 1.346 0 00-.51.59 2.082 2.082 0 00-.179.887v.332c.005.327.066.614.183.861.118.248.284.44.498.574.217.134.467.2.75.2.405 0 .73-.105.974-.317zm3.63-.498c.12-.264.181-.57.181-.918v-.198a2.148 2.148 0 00-.186-.91 1.355 1.355 0 00-.52-.6c-.223-.14-.479-.21-.769-.21-.29 0-.546.07-.771.212-.223.14-.396.342-.52.607a2.174 2.174 0 00-.183.918v.2c.002.34.063.641.185.901.124.26.298.462.523.604.226.14.483.21.771.21.292 0 .549-.07.772-.21.224-.142.397-.344.517-.606zm-.661-2.01c.15.21.224.513.224.907v.185c0 .4-.074.705-.222.913-.146.209-.356.313-.63.313a.738.738 0 01-.634-.32c-.152-.213-.227-.515-.227-.906V45.2c.003-.383.08-.678.229-.886a.731.731 0 01.627-.315c.274 0 .485.105.633.315z" fill="#AFB1B8"/></svg>
